src/icon-mask.svg

<svg height="486" viewBox="0 0 503 486" width="503" xmlns="http://www.w3.org/2000/svg"><path d="m393.973517 235.443922c-9.081497-17.071432-25.148234-25.940054-37.02744-30.373434-12.765054-4.764424-27.017734-6.702863-38.88199-5.387383-.366923-2.594316-.839126-5.169999-1.446511-7.718975-3.687294-15.475215-11.816287-29.484025-23.509228-40.512197-16.796222-15.842904-38.884482-23.655043-59.306948-21.919081-2.265079-2.745243-8.201256-9.299042-17.095243-14.519971-10.21902-5.999162-21.04854-8.320817-31.950947-6.952544-3.550243-3.873772-15.143511-15.1162221-31.218347-16.5118237-3.241256-.2819774-6.454479-.1360199-9.632816.4074386-1.822778-1.3297655-5.872635-4.0259411-11.037588-5.8966808-9.761146-3.5358967-18.779724-2.503636-26.08205 2.9837429-8.611163 6.4724363-11.6798593 16.173327-8.642311 27.31516 1.4963477 5.486757 4.114645 10.073548 5.634042 12.442406-3.294831 10.500862-2.613314 20.626582-.777453 28.723183 3.204501 14.131165 10.361055 24.654386 11.817533 26.694685-2.156061 12.646126-1.219131 24.179249.781191 33.626111 4.390615 20.740864 14.436453 35.339093 16.80432 38.570032-.680894 21.460092 4.234253 46.531233 20.925195 72.943941 33.781824 53.456449 79.407968 72.643331 121.627149 72.641468 17.89263-.000621 35.171022-3.454533 50.676473-9.200288 5.330038 1.660188 10.589058 2.489972 15.719126 2.489351 14.666948-.000621 28.276734-6.713421 39.428324-19.725372 13.44408-15.68701 22.701874-39.928989 25.398664-66.509392 2.78525-27.441242-1.548676-53.583152-12.203145-73.610377zm-286.815333-121.529138c-2.053896-7.531404-.336397-13.234303 5.250922-17.4335302 4.666587-3.5067052 10.402171-4.0948827 17.047898-1.7471416.979914.3459502 1.909992.734756 2.782135 1.137847-3.845526 1.9477555-7.623773 4.5190908-11.31792 7.7320178-5.363678 4.665049-9.364321 9.536301-12.304687 14.447924-.546336-1.276972-1.058408-2.671332-1.458348-4.137117zm266.516835 255.598815c-9.045365 10.555518-24.480422 21.544561-46.636584 13.953532-5.820929-1.994959-10.924209-4.756971-15.167184-8.210883-1.999075-1.627891-7.997719-5.127917-9.629872-3.135443-1.632152 1.993096 1.72203 8.724682 3.720483 10.351331 2.12429 1.72913 4.425501 3.300502 6.872484 4.727158-16.667269 4.801068-41.692781 8.672357-69.418196 1.490629-32.970731-8.540684-60.622015-30.17282-82.185743-64.295807-25.847817-40.901624-21.337593-78.252445-13.002401-102.382006 9.644029-27.919485 30.07148-54.32474 54.6441-70.634708.685429-.455058 7.555698-5.142725 8.507204-7.619013.395692-1.029783-3.962948-.450265-4.275862-.978191-.677393-1.142851-3.207975-1.595795-5.344827-1.156037-1.940786.399408-3.503816 1.627112-4.063928 1.998863-26.217855 17.403097-48.012078 45.573505-58.300246 75.355656-2.242653 6.493553-4.229892 13.871547-5.520041 21.971253-3.296699-6.27058-7.063109-15.033616-9.209826-25.374236-5.787913-27.88843 2.387179-53.640914 24.298518-76.54319 2.929776-3.062622 5.905652-5.848235 8.844772-8.278582 1.985994-1.642797 6.045507-7.535752 4.399027-9.515804-.428056-.51455 10.691934-7.142517 12.827586-9.493155 1.369532-1.507395-5.578469.637846-6.413793 1.046877-2.137931 1.046877-13.896552 8.446278-16.778275 10.792156-2.881724 2.345878-6.461332 5.695446-9.640292 9.018307-12.533936 13.100767-20.025642 26.307742-24.181402 38.809774-2.1517-4.181836-4.554453-9.818899-5.973554-16.222394-3.88415-17.529179 1.167425-32.523666 15.013936-44.566087 8.319618-7.235763 16.92829-10.532538 25.597388-9.802751 9.169957.774506 16.750746 5.887365 21.3052 9.798403-1.790385.626064-.426478-.048445-5.358694 2.172592-4.932216 2.221038-4.932216 4.64753-6.3981 6.422922-1.336494 1.618682-.519031.91109 0 2.023356.29227.626159-9.044048 8.054312-10.689656 10.782013-1.338705 2.218991 4.755345.080542 6.290629-1.266209 3.422537-3.002247 13.537383-8.959834 14.737343-9.515804 13.379291-6.204744 26.552384-5.650727 39.153599 1.645282 4.718915 2.731578 8.506506 5.953201 11.167787 8.557454-2.752856.739725-5.452137 1.662052-8.069188 2.794309-.53388.231043-13.03879 6.321881-17.102718 9.387858-1.919 1.447765-10.263532 9.343023-7.694693 8.672278 2.871274-.749713 16.828852-10.140047 17.103448-9.515104.526981 1.199334-13.896551 14.999888-4.231342 8.597204 9.665208-6.402685 15.13467-8.376126 15.645616-8.597204 21.242281-9.190351 48.637528-2.98747 68.17041 15.436708 10.367907 9.779149 17.573675 22.192363 20.839849 35.898699 3.724672 15.633595 2.348555 32.369014-4.090972 49.741055-20.37263 54.960742-24.104155 95.866714-11.091163 121.58131.821683 1.623544 6.646843 12.307008 13.616016 17.034166 6.969172 4.727158-4.395147-10.012212-3.720483-10.351331.967909-.487074 9.546782 7.981426 11.758621 8.536913.659337.165588 6.413793 1.067114-2.128749-5.33557-8.542541-6.402685-10.655085-13.037748-11.183361-14.081541-6.450118-12.74488-8.178829-30.370328-5.138789-52.386301 2.45882-17.811156 8.061713-38.593012 16.652319-61.769191 4.830424-13.031205 7.053142-25.792855 6.668153-38.123464 20.736438-2.405503 53.913369 6.527093 66.849737 30.845467 19.868033 37.347094 14.126842 99.169078-12.044291 129.706481z" fill="#fff" stroke="#fff" stroke-width="7"/></svg>

<?xml version="1.0" encoding="UTF-8"?>
<svg width="503px" height="486px" viewBox="0 0 503 486" version="1.1" xmlns="http://www.w3.org/2000/svg" xmlns:xlink="http://www.w3.org/1999/xlink">
    <!-- Generator: Sketch 52.5 (67469) - http://www.bohemiancoding.com/sketch -->
    <title>Artboard</title>
    <desc>Created with Sketch.</desc>
    <g id="Artboard" stroke="none" stroke-width="1" fill="none" fill-rule="evenodd">
        <path d="M393.973517,235.443922 C384.89202,218.37249 368.825283,209.503868 356.946077,205.070488 C344.181023,200.306064 329.928343,198.367625 318.064087,199.683105 C317.697164,197.088789 317.224961,194.513106 316.617576,191.96413 C312.930282,176.488915 304.801289,162.480105 293.108348,151.451933 C276.312126,135.609029 254.223866,127.79689 233.8014,129.532852 C231.536321,126.787609 225.600144,120.23381 216.706157,115.012881 C206.487137,109.013719 195.657617,106.692064 184.75521,108.060337 C181.204967,104.186565 169.611699,92.9441149 153.536863,91.5485133 C150.295607,91.2665359 147.082384,91.4124934 143.904047,91.9559519 C142.081269,90.6261864 138.031412,87.9300108 132.866459,86.0592711 C123.105313,82.5233744 114.086735,83.5556351 106.784409,89.043014 C98.173246,95.5154503 95.1045497,105.216341 98.142098,116.358174 C99.6384457,121.844931 102.256743,126.431722 103.77614,128.80058 C100.481309,139.301442 101.162826,149.427162 102.998687,157.523763 C106.203188,171.654928 113.359742,182.178149 114.81622,184.218448 C112.660159,196.864574 113.597089,208.397697 115.597411,217.844559 C119.988026,238.585423 130.033864,253.183652 132.401731,256.414591 C131.720837,277.874683 136.635984,302.945824 153.326926,329.358532 C187.10875,382.814981 232.734894,402.001863 274.954075,402 C292.846705,401.999379 310.125097,398.545467 325.630548,392.799712 C330.960586,394.4599 336.219606,395.289684 341.349674,395.289063 C356.016622,395.288442 369.626408,388.575642 380.777998,375.563691 C394.222078,359.876681 403.479872,335.634702 406.176662,309.054299 C408.961912,281.613057 404.627986,255.471147 393.973517,235.443922 Z M107.158184,113.914784 C105.104288,106.38338 106.821787,100.680481 112.409106,96.4812538 C117.075693,92.9745486 122.811277,92.3863711 129.457004,94.7341122 C130.436918,95.0800624 131.366996,95.4688682 132.239139,95.8719592 C128.393613,97.8197147 124.615366,100.39105 120.921219,103.603977 C115.557541,108.269026 111.556898,113.140278 108.616532,118.051901 C108.070196,116.774929 107.558124,115.380569 107.158184,113.914784 Z M373.675019,369.513599 C364.629654,380.069117 349.194597,391.05816 327.038435,383.467131 C321.217506,381.472172 316.114226,378.71016 311.871251,375.256248 C309.872176,373.628357 303.873532,370.128331 302.241379,372.120805 C300.609227,374.113901 303.963409,380.845487 305.961862,382.472136 C308.086152,384.201266 310.387363,385.772638 312.834346,387.199294 C296.167077,392.000362 271.141565,395.871651 243.41615,388.689923 C210.445419,380.149239 182.794135,358.517103 161.230407,324.394116 C135.38259,283.492492 139.892814,246.141671 148.228006,222.01211 C157.872035,194.092625 178.299486,167.68737 202.872106,151.377402 C203.557535,150.922344 210.427804,146.234677 211.37931,143.758389 C211.775002,142.728606 207.416362,143.308124 207.103448,142.780198 C206.426055,141.637347 203.895473,141.184403 201.758621,141.624161 C199.817835,142.023569 198.254805,143.251273 197.694693,143.623024 C171.476838,161.026121 149.682615,189.196529 139.394447,218.97868 C137.151794,225.472233 135.164555,232.850227 133.874406,240.949933 C130.577707,234.679353 126.811297,225.916317 124.66458,215.575697 C118.876667,187.687267 127.051759,161.934783 148.963098,139.032507 C151.892874,135.969885 154.86875,133.184272 157.80787,130.753925 C159.793864,129.111128 163.853377,123.218173 162.206897,121.238121 C161.778841,120.723571 172.898831,114.095604 175.034483,111.744966 C176.404015,110.237571 169.456014,112.382812 168.62069,112.791843 C166.482759,113.83872 154.724138,121.238121 151.842415,123.583999 C148.960691,125.929877 145.381083,129.279445 142.202123,132.602306 C129.668187,145.703073 122.176481,158.910048 118.020721,171.41208 C115.869021,167.230244 113.466268,161.593181 112.047167,155.189686 C108.163017,137.660507 113.214592,122.66602 127.061103,110.623599 C135.380721,103.387836 143.989393,100.091061 152.658491,100.820848 C161.828448,101.595354 169.409237,106.708213 173.963691,110.619251 C172.173306,111.245315 173.537213,110.570806 168.604997,112.791843 C163.672781,115.012881 163.672781,117.439373 162.206897,119.214765 C160.870403,120.833447 161.687866,120.125855 162.206897,121.238121 C162.499167,121.86428 153.162849,129.292433 151.517241,132.020134 C150.178536,134.239125 156.272586,132.100676 157.80787,130.753925 C161.230407,127.751678 171.345253,121.794091 172.545213,121.238121 C185.924504,115.033377 199.097597,115.587394 211.698812,122.883403 C216.417727,125.614981 220.205318,128.836604 222.866599,131.440857 C220.113743,132.180582 217.414462,133.102909 214.797411,134.235166 C214.263531,134.466209 201.758621,140.557047 197.694693,143.623024 C195.775693,145.070789 187.431161,152.966047 190,152.295302 C192.871274,151.545589 206.828852,142.155255 207.103448,142.780198 C207.630429,143.979532 193.206897,157.780086 202.872106,151.377402 C212.537314,144.974717 218.006776,143.001276 218.517722,142.780198 C239.760003,133.589847 267.15525,139.792728 286.688132,158.216906 C297.056039,167.996055 304.261807,180.409269 307.527981,194.115605 C311.252653,209.7492 309.876536,226.484619 303.437009,243.85666 C283.064379,298.817402 279.332854,339.723374 292.345846,365.43797 C293.167529,367.061514 298.992689,377.744978 305.961862,382.472136 C312.931034,387.199294 301.566715,372.459924 302.241379,372.120805 C303.209288,371.633731 311.788161,380.102231 314,380.657718 C314.659337,380.823306 320.413793,381.724832 311.871251,375.322148 C303.32871,368.919463 301.216166,362.2844 300.68789,361.240607 C294.237772,348.495727 292.509061,330.870279 295.549101,308.854306 C298.007921,291.04315 303.610814,270.261294 312.20142,247.085115 C317.031844,234.05391 319.254562,221.29226 318.869573,208.961651 C339.606011,206.556148 372.782942,215.488744 385.71931,239.807118 C405.587343,277.154212 399.846152,338.976196 373.675019,369.513599 Z" id="Shape" stroke="#FFFFFF" stroke-width="7" fill="#FFFFFF" fill-rule="nonzero"></path>
    </g>
</svg>
